src/images/svg/symbols/uniswap.svg

<svg width="33" height="32" viewBox="0 0 33 32" fill="none" xmlns="http://www.w3.org/2000/svg">
<path d="M0.5 16C0.5 7.16344 7.66344 0 16.5 0C25.3366 0 32.5 7.16344 32.5 16C32.5 24.8366 25.3366 32 16.5 32C7.66344 32 0.5 24.8366 0.5 16Z" fill="#FF007A"/>
<g clip-path="url(#clip0_9924_57865)">
<path d="M14.472 9.55126C14.2552 9.5203 14.2449 9.50998 14.3481 9.49966C14.5442 9.4687 14.9983 9.50998 15.3182 9.58222C16.0613 9.75766 16.7321 10.2117 17.4442 11.0064L17.63 11.2231L17.8983 11.1818C19.0439 10.996 20.2204 11.1405 21.2009 11.5946C21.4692 11.7184 21.8923 11.9661 21.9439 12.028C21.9646 12.0487 21.9955 12.1828 22.0162 12.317C22.0884 12.802 22.0575 13.1632 21.9027 13.4419C21.8201 13.5967 21.8201 13.6379 21.8717 13.7721C21.913 13.8753 22.0368 13.9475 22.1504 13.9475C22.398 13.9475 22.6561 13.5554 22.7799 13.0084L22.8315 12.7917L22.9244 12.8949C23.4507 13.4831 23.8635 14.2984 23.9255 14.8763L23.9461 15.0311L23.8532 14.897C23.6984 14.6596 23.5539 14.5048 23.3578 14.3707C23.0069 14.1333 22.6354 14.0611 21.655 14.0095C20.7674 13.9579 20.2617 13.8856 19.7663 13.7205C18.9201 13.4419 18.4866 13.0807 17.4855 11.7494C17.0417 11.1612 16.7631 10.8412 16.4844 10.5729C15.8755 9.98469 15.2666 9.6751 14.472 9.55126Z" fill="white"/>
<path d="M22.16 10.8608C22.1806 10.4686 22.2322 10.2106 22.3457 9.97329C22.387 9.88041 22.4283 9.79785 22.4386 9.79785C22.4489 9.79785 22.4283 9.87009 22.3973 9.95265C22.3148 10.1797 22.3045 10.4996 22.3561 10.8608C22.4283 11.3252 22.4593 11.3871 22.9546 11.8928C23.1817 12.1302 23.45 12.4294 23.5532 12.5533L23.7287 12.7803L23.5532 12.6152C23.3365 12.4088 22.8411 12.0166 22.7276 11.965C22.6554 11.9238 22.645 11.9238 22.5934 11.9754C22.5521 12.0166 22.5418 12.0786 22.5418 12.3778C22.5315 12.8422 22.4696 13.1312 22.3148 13.4305C22.2322 13.5853 22.2219 13.5543 22.2941 13.3789C22.3457 13.2447 22.3561 13.1828 22.3561 12.739C22.3561 11.8412 22.2529 11.6245 21.6233 11.2633C21.4685 11.1704 21.2002 11.0362 21.0454 10.964C20.8802 10.8918 20.7564 10.8298 20.7667 10.8298C20.7874 10.8092 21.3963 10.9846 21.6336 11.0878C21.9948 11.2323 22.0568 11.2426 22.098 11.2323C22.129 11.2014 22.1497 11.1188 22.16 10.8608Z" fill="white"/>
<path d="M14.8946 12.3984C14.4612 11.7998 14.1825 10.871 14.2444 10.1796L14.2651 9.96289L14.3683 9.98353C14.554 10.0145 14.874 10.1383 15.0288 10.2312C15.4416 10.4789 15.6274 10.8194 15.8028 11.6657C15.8544 11.9134 15.9267 12.2023 15.9576 12.2952C16.0092 12.45 16.2053 12.8112 16.3704 13.0382C16.484 13.2033 16.4117 13.2859 16.1537 13.2653C15.7615 13.224 15.2352 12.8628 14.8946 12.3984Z" fill="white"/>
<path d="M21.634 16.8883C19.5906 16.0627 18.8682 15.3506 18.8682 14.1432C18.8682 13.9677 18.8785 13.8232 18.8785 13.8232C18.8888 13.8232 18.961 13.8852 19.0539 13.9574C19.4667 14.2876 19.9312 14.4321 21.2212 14.6179C21.9746 14.7314 22.4081 14.814 22.8002 14.9481C24.049 15.3609 24.8231 16.2071 25.0088 17.3527C25.0604 17.6829 25.0295 18.3124 24.9469 18.6426C24.8747 18.9006 24.6682 19.3754 24.6166 19.3857C24.6063 19.3857 24.5857 19.3341 24.5857 19.2515C24.565 18.8181 24.3483 18.4053 23.9871 18.0854C23.5536 17.7139 22.9963 17.4352 21.634 16.8883Z" fill="white"/>
<path d="M20.1889 17.2289C20.1682 17.0741 20.1166 16.878 20.0857 16.7954L20.0341 16.6406L20.127 16.7541C20.2611 16.9089 20.3643 17.0947 20.4572 17.3527C20.5295 17.5488 20.5295 17.6107 20.5295 17.9306C20.5295 18.2402 20.5191 18.3125 20.4572 18.4879C20.354 18.7665 20.2302 18.9626 20.0238 19.1793C19.6522 19.5612 19.1672 19.7676 18.4757 19.8604C18.3519 19.8708 18.001 19.9017 17.6913 19.9224C16.9173 19.9636 16.4013 20.0462 15.9369 20.2113C15.875 20.232 15.813 20.2526 15.8027 20.2423C15.7821 20.2216 16.102 20.0359 16.36 19.912C16.7212 19.7366 17.0928 19.6437 17.9081 19.4992C18.3106 19.4373 18.7234 19.3548 18.8266 19.3135C19.8483 18.9936 20.354 18.1989 20.1889 17.2289Z" fill="white"/>
<path d="M21.1278 18.8912C20.8595 18.303 20.7976 17.7457 20.9421 17.2194C20.9627 17.1678 20.9833 17.1162 21.004 17.1162C21.0246 17.1162 21.0866 17.1472 21.1485 17.1885C21.2723 17.271 21.5303 17.4155 22.1908 17.7767C23.0268 18.2308 23.5015 18.5816 23.8318 18.9841C24.1208 19.335 24.2962 19.7375 24.3788 20.2328C24.4304 20.5115 24.3994 21.1823 24.3272 21.4609C24.1001 22.3381 23.5841 23.0398 22.8307 23.4423C22.7172 23.5042 22.6243 23.5455 22.614 23.5455C22.6037 23.5455 22.6449 23.4423 22.7069 23.3185C22.9545 22.7922 22.9855 22.2865 22.7997 21.7189C22.6862 21.368 22.4488 20.9449 21.9741 20.2328C21.4065 19.4072 21.2723 19.1905 21.1278 18.8912Z" fill="white"/>
<path d="M13.4394 22.0482C14.2031 21.4084 15.1423 20.9543 16.0092 20.8098C16.3807 20.7479 16.9999 20.7685 17.3405 20.8614C17.8875 21.0059 18.3829 21.3155 18.6409 21.6973C18.8886 22.0688 19.0021 22.3888 19.1156 23.1008C19.1569 23.3795 19.2085 23.6684 19.2188 23.7303C19.3014 24.1019 19.4665 24.3908 19.6729 24.5456C19.9929 24.783 20.5502 24.7933 21.0971 24.5869C21.19 24.5559 21.2726 24.525 21.2726 24.5353C21.2932 24.5559 21.0146 24.7417 20.8288 24.8346C20.5708 24.9687 20.3644 25.01 20.0857 25.01C19.5904 25.01 19.1672 24.752 18.8266 24.236C18.7544 24.1328 18.6099 23.8335 18.4861 23.5549C18.1249 22.719 17.9391 22.4713 17.516 22.1927C17.1444 21.9553 16.6697 21.9037 16.3085 22.0792C15.8337 22.3062 15.7099 22.9151 16.0401 23.2866C16.1743 23.4414 16.422 23.5652 16.6284 23.5962C17.0103 23.6478 17.3405 23.3485 17.3405 22.9667C17.3405 22.719 17.2476 22.5745 16.9999 22.461C16.6697 22.3165 16.3085 22.4816 16.3188 22.8016C16.3188 22.9357 16.3807 23.0183 16.5149 23.0802C16.5974 23.1215 16.5974 23.1215 16.5355 23.1112C16.2362 23.0492 16.164 22.6777 16.4013 22.4404C16.6903 22.1514 17.2992 22.2752 17.5056 22.6777C17.5882 22.8428 17.5985 23.1731 17.5263 23.3795C17.3508 23.8335 16.8554 24.0709 16.3497 23.9367C16.0092 23.8439 15.8647 23.751 15.4519 23.3279C14.7294 22.5848 14.4508 22.4404 13.4187 22.2856L13.2227 22.2546L13.4394 22.0482Z" fill="white"/>
<path fill-rule="evenodd" clip-rule="evenodd" d="M8.01053 5.44376C10.4152 8.36429 14.1202 12.9051 14.306 13.1527C14.4608 13.3591 14.3989 13.5552 14.1409 13.6997C13.9964 13.7823 13.6971 13.8648 13.5526 13.8648C13.3875 13.8648 13.1914 13.7823 13.0572 13.6481C12.9643 13.5552 12.5618 12.967 11.6536 11.5531C10.9622 10.4696 10.3739 9.57172 10.3636 9.5614C10.3223 9.54076 10.3223 9.54076 11.5814 11.7905C12.3761 13.2043 12.6341 13.71 12.6341 13.7719C12.6341 13.9061 12.5928 13.9783 12.4277 14.1641C12.149 14.4737 12.0252 14.8246 11.9323 15.5573C11.8291 16.3726 11.5504 16.9505 10.7558 17.9309C10.2913 18.5088 10.2191 18.612 10.1056 18.8493C9.96109 19.1383 9.91981 19.3034 9.89917 19.6749C9.87853 20.0671 9.91981 20.3148 10.0333 20.6863C10.1365 21.0165 10.2501 21.2332 10.5287 21.6563C10.7661 22.0279 10.9106 22.3065 10.9106 22.4097C10.9106 22.4923 10.9312 22.4923 11.3027 22.4097C12.1903 22.2033 12.9231 21.8524 13.3256 21.419C13.5732 21.1507 13.6352 21.0062 13.6352 20.6347C13.6352 20.3973 13.6248 20.3457 13.5629 20.2012C13.4597 19.9742 13.2636 19.7884 12.8405 19.4995C12.2832 19.1176 12.0458 18.8081 11.9839 18.3953C11.9323 18.0444 11.9942 17.807 12.3038 17.1569C12.6238 16.4861 12.7063 16.2074 12.7579 15.5263C12.7889 15.0929 12.8405 14.9174 12.9643 14.7833C13.0985 14.6388 13.212 14.5872 13.532 14.5459C14.0583 14.4737 14.3989 14.3395 14.6672 14.0815C14.9046 13.8648 15.0078 13.6481 15.0181 13.3282L15.0284 13.0908L14.8943 12.9463C14.4092 12.3891 7.6906 5 7.65964 5C7.64932 5 7.81445 5.19608 8.01053 5.44376ZM11.1789 20.1187C11.2924 19.9226 11.2305 19.6749 11.0447 19.5511C10.8693 19.4376 10.601 19.4892 10.601 19.644C10.601 19.6852 10.6216 19.7265 10.6835 19.7472C10.7764 19.7988 10.7867 19.8504 10.7145 19.9639C10.6422 20.0774 10.6422 20.1806 10.7351 20.2528C10.8796 20.3664 11.0757 20.3044 11.1789 20.1187Z" fill="white"/>
<path fill-rule="evenodd" clip-rule="evenodd" d="M15.3591 14.6912C15.1114 14.7635 14.874 15.0318 14.8018 15.3001C14.7605 15.4652 14.7812 15.7645 14.8534 15.8574C14.9669 16.0019 15.0701 16.0432 15.3591 16.0432C15.9267 16.0432 16.4117 15.7955 16.4633 15.4962C16.5149 15.2485 16.2982 14.908 15.9989 14.7532C15.8441 14.6706 15.5242 14.6396 15.3591 14.6912ZM16.0196 15.2072C16.1021 15.0834 16.0712 14.9492 15.9164 14.8564C15.6377 14.6809 15.2146 14.8254 15.2146 15.0937C15.2146 15.2279 15.4313 15.3724 15.6377 15.3724C15.7719 15.3724 15.9576 15.2898 16.0196 15.2072Z" fill="white"/>
</g>
<defs>
<clipPath id="clip0_9924_57865">
<rect width="17.3693" height="20" fill="white" transform="translate(7.66016 5)"/>
</clipPath>
</defs>
</svg>

<svg width="33" height="32" fill="none" xmlns="http://www.w3.org/2000/svg"><path d="M.5 16c0-8.837 7.163-16 16-16s16 7.163 16 16-7.163 16-16 16-16-7.163-16-16Z" fill="#FF007A"/><g clip-path="url(#a)" fill="#fff"><path d="M14.472 9.551c-.217-.03-.227-.041-.124-.051.196-.031.65.01.97.082.743.176 1.414.63 2.126 1.424l.186.217.268-.041c1.146-.186 2.322-.042 3.303.413.268.123.691.371.743.433.02.02.052.155.072.289.072.485.042.846-.113 1.125-.083.155-.083.196-.031.33.041.103.165.175.278.175.248 0 .506-.392.63-.939l.051-.216.093.103c.527.588.94 1.403 1.002 1.981l.02.155-.093-.134a1.741 1.741 0 0 0-.495-.526c-.351-.238-.723-.31-1.703-.362-.888-.051-1.393-.123-1.889-.289-.846-.278-1.28-.64-2.28-1.97-.444-.589-.723-.909-1.002-1.177-.609-.588-1.217-.898-2.012-1.022Z"/><path d="M22.16 10.86c.02-.391.072-.65.186-.887a.713.713 0 0 1 .093-.175c.01 0-.01.072-.042.155-.082.227-.092.547-.04.908.071.464.102.526.598 1.032.227.237.495.536.598.66l.176.227-.176-.165c-.216-.206-.712-.598-.825-.65-.073-.041-.083-.041-.135.01-.04.042-.051.104-.051.403-.01.464-.072.753-.227 1.053-.083.154-.093.123-.02-.052.05-.134.061-.196.061-.64 0-.898-.103-1.115-.733-1.476a7.683 7.683 0 0 0-.578-.299 2.273 2.273 0 0 1-.278-.134c.02-.02.63.155.867.258.36.144.423.155.464.144.031-.03.052-.113.062-.371ZM14.895 12.398c-.434-.598-.713-1.527-.65-2.218l.02-.217.103.02c.186.031.506.155.66.248.414.248.6.588.775 1.435.051.247.124.536.155.63.051.154.247.515.412.742.114.165.042.248-.216.227-.393-.041-.919-.402-1.26-.867ZM21.634 16.888c-2.043-.825-2.766-1.537-2.766-2.745 0-.175.01-.32.01-.32.01 0 .083.062.176.134.413.33.877.475 2.167.66.754.114 1.187.197 1.58.331 1.248.413 2.022 1.26 2.208 2.405.051.33.02.96-.062 1.29-.072.258-.279.732-.33.743-.01 0-.031-.052-.031-.134-.021-.434-.238-.847-.599-1.167-.433-.371-.99-.65-2.353-1.197ZM20.189 17.229a2.457 2.457 0 0 0-.103-.434l-.052-.154.093.113c.134.155.237.34.33.599.072.196.072.258.072.578 0 .31-.01.381-.072.557a1.867 1.867 0 0 1-.433.691c-.372.382-.857.589-1.548.681-.124.01-.475.042-.785.062-.774.042-1.29.124-1.754.29-.062.02-.124.04-.134.03-.02-.02.299-.206.557-.33.361-.175.733-.268 1.548-.413.403-.062.815-.144.919-.185 1.021-.32 1.527-1.115 1.362-2.085Z"/><path d="M21.128 18.891c-.268-.588-.33-1.145-.186-1.672.02-.051.041-.103.062-.103.02 0 .083.031.144.073.124.082.382.227 1.043.588.836.454 1.31.805 1.64 1.207.29.351.465.753.548 1.249.051.279.02.95-.052 1.228-.227.877-.743 1.579-1.496 1.981a1.437 1.437 0 0 1-.217.104c-.01 0 .03-.104.093-.227.247-.527.278-1.032.093-1.6-.114-.351-.351-.774-.826-1.486-.567-.826-.702-1.043-.846-1.342ZM13.44 22.048c.763-.64 1.702-1.094 2.57-1.238.37-.062.99-.041 1.33.051.547.145 1.043.454 1.3.836.249.372.362.692.476 1.404.04.279.093.567.103.63.082.37.247.66.454.815.32.237.877.247 1.424.04.093-.03.176-.061.176-.05.02.02-.258.206-.444.299a1.462 1.462 0 0 1-.743.175c-.496 0-.919-.258-1.26-.774-.072-.103-.216-.402-.34-.681-.361-.836-.547-1.084-.97-1.362-.372-.238-.846-.29-1.207-.114-.475.227-.6.836-.269 1.208.134.154.382.278.588.31a.63.63 0 0 0 .712-.63c0-.248-.092-.392-.34-.506-.33-.144-.692.02-.681.34 0 .135.062.217.196.28.082.04.082.04.02.03-.299-.062-.371-.433-.134-.67.29-.29.898-.166 1.105.237.082.165.093.495.02.701-.175.454-.67.692-1.176.558-.34-.093-.485-.186-.898-.61-.723-.742-1.001-.887-2.033-1.041l-.196-.031.216-.207Z"/><path fill-rule="evenodd" clip-rule="evenodd" d="M8.01 5.444c2.405 2.92 6.11 7.461 6.296 7.709.155.206.093.402-.165.547a1.579 1.579 0 0 1-.588.165.745.745 0 0 1-.496-.217c-.093-.093-.495-.681-1.403-2.095a134.098 134.098 0 0 0-1.29-1.992c-.042-.02-.042-.02 1.217 2.23.795 1.413 1.053 1.919 1.053 1.98 0 .135-.041.207-.206.393-.279.31-.403.66-.496 1.393-.103.816-.382 1.394-1.176 2.374-.465.578-.537.681-.65.918-.145.29-.186.454-.207.826-.02.392.02.64.134 1.011.104.33.217.547.496.97.237.372.382.65.382.754 0 .082.02.082.392 0 .887-.207 1.62-.558 2.023-.991.247-.268.31-.413.31-.784 0-.238-.011-.29-.073-.434-.103-.227-.3-.413-.723-.701-.557-.382-.794-.692-.856-1.105-.052-.35.01-.588.32-1.238.32-.67.402-.95.454-1.63.03-.434.083-.61.206-.744.134-.144.248-.196.568-.237.526-.072.867-.207 1.135-.464a.97.97 0 0 0 .351-.754l.01-.237-.134-.145C14.41 12.39 7.691 5 7.66 5c-.01 0 .154.196.35.444Zm3.169 14.675a.426.426 0 0 0-.134-.568c-.176-.113-.444-.062-.444.093 0 .041.02.083.082.103.093.052.104.103.031.217-.072.113-.072.217.021.289.145.113.34.051.444-.134ZM15.36 14.691c-.249.072-.486.34-.558.61-.041.164-.02.463.051.556.114.145.217.186.506.186.568 0 1.053-.247 1.104-.547.052-.248-.165-.588-.464-.743a1.049 1.049 0 0 0-.64-.062Zm.66.516c.082-.124.051-.258-.104-.35-.278-.176-.701-.032-.701.237 0 .134.216.278.423.278.134 0 .32-.082.382-.165Z"/></g><defs><clipPath id="a"><path fill="#fff" transform="translate(7.66 5)" d="M0 0h17.369v20H0z"/></clipPath></defs></svg>
